dist/svgs/carbon-icons/svg/network.svg

<svg xmlns="http://www.w3.org/2000/svg" fill-rule="evenodd" viewBox="0 0 23 24"><path d="M20.5 18v-6h-9V5.9C12.9 5.7 14 4.5 14 3c0-1.7-1.3-3-3-3S8 1.3 8 3c0 1.5 1.1 2.7 2.5 2.9V12h-8v6.1C1.1 18.4 0 19.6 0 21c0 1.7 1.3 3 3 3s3-1.3 3-3c0-1.5-1.1-2.7-2.5-2.9V13h16v5.1c-1.4.2-2.5 1.5-2.5 2.9 0 1.7 1.3 3 3 3s3-1.3 3-3c0-1.5-1-2.8-2.5-3zM9 3c0-1.1.9-2 2-2s2 .9 2 2-.9 2-2 2-2-.9-2-2zM5 21c0 1.1-.9 2-2 2s-2-.9-2-2 .9-2 2-2 2 .9 2 2zm15 2c-1.1 0-2-.9-2-2s.9-2 2-2 2 .9 2 2-.9 2-2 2z"/></svg>

<svg width="23px" height="24px" viewBox="0 0 23 24" version="1.1" xmlns="http://www.w3.org/2000/svg" xmlns:xlink="http://www.w3.org/1999/xlink" fill-rule="evenodd">
	<path d="M20.5,18 L20.5,12 L11.5,12 L11.5,5.9 C12.9,5.7 14,4.5 14,3 C14,1.3 12.7,0 11,0 C9.3,0 8,1.3 8,3 C8,4.5 9.1,5.7 10.5,5.9 L10.5,12 L2.5,12 L2.5,18.1 C1.1,18.4 0,19.6 0,21 C0,22.7 1.3,24 3,24 C4.7,24 6,22.7 6,21 C6,19.5 4.9,18.3 3.5,18.1 L3.5,13 L19.5,13 L19.5,18.1 C18.1,18.3 17,19.6 17,21 C17,22.7 18.3,24 20,24 C21.7,24 23,22.7 23,21 C23,19.5 22,18.2 20.5,18 L20.5,18 Z M9,3 C9,1.9 9.9,1 11,1 C12.1,1 13,1.9 13,3 C13,4.1 12.1,5 11,5 C9.9,5 9,4.1 9,3 L9,3 Z M5,21 C5,22.1 4.1,23 3,23 C1.9,23 1,22.1 1,21 C1,19.9 1.9,19 3,19 C4.1,19 5,19.9 5,21 L5,21 Z M20,23 C18.9,23 18,22.1 18,21 C18,19.9 18.9,19 20,19 C21.1,19 22,19.9 22,21 C22,22.1 21.1,23 20,23 L20,23 Z" id="Shape" fill="#010101"></path>
</svg>
